material/.icons/material/sack-percent.svg

<svg xmlns="http://www.w3.org/2000/svg" viewBox="0 0 24 24"><path d="M8 7L6 2l4 2 2-2 2 2 4-2-2 5H8m8 15H8c-6 0-5-4-5-4s1-7 5-9h8c4 2 5 9 5 9s1 4-5 4m-8.5-9.5A1.5 1.5 0 009 14a1.5 1.5 0 001.5-1.5A1.5 1.5 0 009 11a1.5 1.5 0 00-1.5 1.5m9 6A1.5 1.5 0 0015 17a1.5 1.5 0 00-1.5 1.5A1.5 1.5 0 0015 20a1.5 1.5 0 001.5-1.5m0-6.15L15.15 11 7.5 18.65 8.87 20l7.63-7.65z"/></svg>

<?xml version="1.0" encoding="UTF-8"?><!DOCTYPE svg PUBLIC "-//W3C//DTD SVG 1.1//EN" "http://www.w3.org/Graphics/SVG/1.1/DTD/svg11.dtd"><svg xmlns="http://www.w3.org/2000/svg" xmlns:xlink="http://www.w3.org/1999/xlink" version="1.1" id="mdi-sack-percent" width="24" height="24" viewBox="0 0 24 24"><path d="M8,7L6,2L10,4L12,2L14,4L18,2L16,7H8M16,22C10,22 8,22 8,22C2,22 3,18 3,18C3,18 4,11 8,9H16C20,11 21,18 21,18C21,18 22,22 16,22M7.5,12.5A1.5,1.5 0 0,0 9,14A1.5,1.5 0 0,0 10.5,12.5A1.5,1.5 0 0,0 9,11A1.5,1.5 0 0,0 7.5,12.5M16.5,18.5A1.5,1.5 0 0,0 15,17A1.5,1.5 0 0,0 13.5,18.5A1.5,1.5 0 0,0 15,20A1.5,1.5 0 0,0 16.5,18.5M16.5,12.35L15.15,11L7.5,18.65L8.87,20L16.5,12.35Z" /></svg>
